X: 4
T: Missa L'homme arm\'e quarti toni / Sanctus
N: Derived from Com1002d-Missa_Lhomme_arme-Sanctus.krn
C: Loyset Comp\`ere
%%abc-version 2.0
%%abcx-abcm2ps-target-version 5.9.1 (29 Sep 2008)
%%abc-creator hum2abc beta
%%abcx-conversion-date 2019/02/16 20:28:09
%%abc-edited-by Jesse Rodin
%%abc-edited-by Jesse Rodin; Victoria Chang 2012/02/25
%%abcx-initial-encoding-date 2012/02/25/
%%humdrum-veritas 2648309142
%%humdrum-veritas-data 3893919252
%%linebreak <none>
%%barnumbers 0
L: 1/4
M: 3/1
Q: 1/2=120
%%staves [1 2 3 4]
V: 1 clef=treble
V: 2 clef=treble-8
V: 3 clef=treble-8
V: 4 clef=bass
K: C
[V:1] z12 | 
[V:2] z12 | 
[V:3] z12 | 
[V:4] E,8E,4 | 
[V:1] z4E8- | 
[V:2] z12 | 
[V:3] z12 | 
[V:4] A,8A,4 | 
[V:1] E4A8 | 
[V:2] z12 | 
[V:3] z12 | 
[V:4] G,4F,3E,F,4 | 
[V:1] G2F3EE4D2 | 
[V:2] z12 | 
[V:3] z12 | 
[V:4] E,2A,4G,2F,4 | 
[V:1] E3FG2A4^G2 | 
[V:2] z12 | 
[V:3] z12 | 
[V:4] E,6D,C,B,,4 | 
[V:1] A4z2A3Bc2- | 
[V:2] z12 | 
[V:3] E8E4 | 
[V:4] A,,12- | 
[V:1] cBAGA2G4^F2 | 
[V:2] z12 | 
[V:3] A8A4 | 
[V:4] A,,4D,8 | 
[V:1] G2G,2A,4B,4 | 
[V:2] D8D4 | 
[V:3] G4F3EF4 | 
[V:4] G,,4D,8 | 
[V:1] C3DE2E3DCB, | 
[V:2] G8G4 | 
[V:3] E12 | 
[V:4] C,12 | 
[V:1] A,3B,C2D4^C2 | 
[V:2] F4E3DE4 | 
[V:3] z12 | 
[V:4] D,4A,,8 | 
[V:1] D4z2D3EF2 | 
[V:2] D12 | 
[V:3] z12 | 
[V:4] z2A,3G,F,E,F,4 | 
[V:1] G8G2FE | 
[V:2] z12 | 
[V:3] B4B4E4 | 
[V:4] E,4z2E,3D,C,2 | 
[V:1] D2G4F2E4 | 
[V:2] z12 | 
[V:3] B2B2B2A4G2 | 
[V:4] B,,2E,4A,,2C,4 | 
[V:1] D4C2E2D2F2- | 
[V:2] A4A4D4 | 
[V:3] F4E4z4 | 
[V:4] D,4A,,4A,4 | 
[V:1] FED2C2E3DD2- | 
[V:2] A2A2A2G4F2 | 
[V:3] z12 | 
[V:4] D,3E,F,2C,4D,2 | 
[V:1] D2^C2D4=C2G2- | 
[V:2] E4D4z4 | 
[V:3] z4z4e4 | 
[V:4] A,,4z2A,4E,2- | 
[V:1] GABcB2A4GF | 
[V:2] z12 | 
[V:3] e4d4d4 | 
[V:4] E,2G,4D,2F,2E,D, | 
[V:1] G4C2G3FG2 | 
[V:2] z4z4d4 | 
[V:3] e4e4B4- | 
[V:4] C,8G,,4- | 
[V:1] D2G2z2G4A2 | 
[V:2] d4c4c4 | 
[V:3] B4e4e4 | 
[V:4] G,,4C,8 | 
[V:1] _B3AF2G2A2c2- | 
[V:2] d4d4A4- | 
[V:3] d4d4e4- | 
[V:4] _B,,8z4 | 
[V:1] c2BAB2G3FD2 | 
[V:2] A4d4d4 | 
[V:3] e4B8 | 
[V:4] A,,4G,,8 | 
[V:1] E3FG4F2A2- | 
[V:2] c4c4d4- | 
[V:3] z4e4f4- | 
[V:4] C,4E,4D,4- | 
[V:1] A2B2c2A3G/F/E2- | 
[V:2] d4A8 | 
[V:3] f4e2d2c4 | 
[V:4] D,4C,2D,2A,,4 | 
[V:1] EFG3AB4G2- | 
[V:2] z4d4e4- | 
[V:3] B12 | 
[V:4] E,3F,G,3F,E,D,E,2 | 
[V:1] GABcB2A4^G2 | 
[V:2] e4d2c2B4 | 
[V:3] z12 | 
[V:4] C,2G,4A,2E,4 | 
[V:1] A4z2c3BA2- | 
[V:2] A12 | 
[V:3] E8E4 | 
[V:4] A,,12- | 
[V:1] AGFEF2G4^F2 | 
[V:2] z12 | 
[V:3] A8A4 | 
[V:4] A,,4D,8 | 
[V:1] G2G,2A,4B,4 | 
[V:2] D8D4 | 
[V:3] G4F8 | 
[V:4] G,,4D,8 | 
[V:1] C4z2C3DE2 | 
[V:2] G8G4 | 
[V:3] E12 | 
[V:4] C,12 | 
[V:1] F2EDC2D4^C2 | 
[V:2] F4E8 | 
[V:3] z12 | 
[V:4] D,4A,,8 | 
[V:1] D4z2A3GFE | 
[V:2] D12 | 
[V:3] z12 | 
[V:4] z2A,3G,F,E,F,2D,2 | 
[V:1] D4z2G3FED | 
[V:2] z12 | 
[V:3] B4B4B4 | 
[V:4] z2G,3F,E,D,E,4 | 
[V:1] C3DE2F4E2 | 
[V:2] z12 | 
[V:3] A8G4 | 
[V:4] A,,4z4C,4 | 
[V:1] F2C2D4C3D | 
[V:2] A4A4A4 | 
[V:3] F2E2F4E4 | 
[V:4] D,2A,,2D,4A,,4 | 
[V:1] E4z2E2F2ED | 
[V:2] G8F4 | 
[V:3] z12 | 
[V:4] C,8D,4 | 
[V:1] C2D4^C2D4- | 
[V:2] E2D2E4D4 | 
[V:3] z12 | 
[V:4] A,,2B,,2A,,4A,4 | 
[V:1] D4G4GFED | 
[V:2] z12 | 
[V:3] B4B4B4 | 
[V:4] G,4E,3F,G,4 | 
[V:1] E2F3EE4D2 | 
[V:2] z12 | 
[V:3] A4G2E2F4 | 
[V:4] C,2D,2E,2C,2D,4 | 
[V:1] E12 ||  
[V:2] A12 ||  
[V:3] E12 ||  
[V:4] A,,12 ||  
[V:1]  [K:C] [K:clef=treble][M:2/1]z8 | 
[V:2]  [K:C] [K:clef=treble-8][M:2/1]z8 | 
[V:3]  [K:C] [K:clef=treble-8][M:2/1]z8 | 
[V:4]  [K:C] [K:clef=bass][M:2/1]E,6F,2 | 
[V:1] z4E4- | 
[V:2] z8 | 
[V:3] z8 | 
[V:4] G,4C,4- | 
[V:1] E2F2G4 | 
[V:2] z8 | 
[V:3] z4z2E2- | 
[V:4] C,2D,2E,4 | 
[V:1] C3DE2F2- | 
[V:2] z8 | 
[V:3] E2E2A4- | 
[V:4] A,,8 | 
[V:1] FEE4D2 | 
[V:2] z4A4 | 
[V:3] A2G2F4 | 
[V:4] z8 | 
[V:1] E8- | 
[V:2] c3BA2G2 | 
[V:3] E8- | 
[V:4] A,,6C,2- | 
[V:1] E8 | 
[V:2] c4B2c2 | 
[V:3] E8 | 
[V:4] C,B,,A,,2G,,2C,2- | 
[V:1] z8 | 
[V:2] d3cA2B2- | 
[V:3] z8 | 
[V:4] C,2B,,2C,2D,2- | 
[V:1] z8 | 
[V:2] BAA4^G2 | 
[V:3] z8 | 
[V:4] D,C,A,,2B,,4 | 
[V:1] z8 | 
[V:2] A8 | 
[V:3] z4z2F2- | 
[V:4] A,,3B,,C,2D,2- | 
[V:1] D8 | 
[V:2] A4z2d2- | 
[V:3] F2F2_B4- | 
[V:4] D,E,F,2G,4 | 
[V:1] F4G4 | 
[V:2] dcc4B2 | 
[V:3] B2A2G4 | 
[V:4] z8 | 
[V:1] A8- | 
[V:2] c4z2c2- | 
[V:3] F8- | 
[V:4] z8 | 
[V:1] A8 | 
[V:2] c2d2c2A2- | 
[V:3] F8 | 
[V:4] z4z2F,2- | 
[V:1] z8 | 
[V:2] A2d3cBA | 
[V:3] z8 | 
[V:4] F,2G,2F,2D,2- | 
[V:1] z8 | 
[V:2] B2A2G2c2- | 
[V:3] z8 | 
[V:4] D,2F,2E,2C,2 | 
[V:1] z8 | 
[V:2] c2B2c4- | 
[V:3] z4z2G2- | 
[V:4] D,4C,4- | 
[V:1] E3FG2A2- | 
[V:2] c4z4 | 
[V:3] G2G2c4- | 
[V:4] C,4z4 | 
[V:1] AGG4F2 | 
[V:2] z8 | 
[V:3] c2B2A4 | 
[V:4] z8 | 
[V:1] G2D2E4 | 
[V:2] z4c4 | 
[V:3] G8- | 
[V:4] z4C,4 | 
[V:1] D4z4 | 
[V:2] B3cd2e2- | 
[V:3] G8 | 
[V:4] G,,3A,,B,,2C,2- | 
[V:1] z8 | 
[V:2] edcBc2B2- | 
[V:3] z8 | 
[V:4] C,D,E,2A,,2B,,2 | 
[V:1] z8 | 
[V:2] BAA4^G2 | 
[V:3] z8 | 
[V:4] C,2D,2B,,4 | 
[V:1] C3DE2F2- | 
[V:2] A8 | 
[V:3] z4z2A2- | 
[V:4] A,,3B,,C,2D,2- | 
[V:1] FGA2F2_B2- | 
[V:2] z8 | 
[V:3] A2A2d4- | 
[V:4] D,E,F,2D,2G,2- | 
[V:1] BAA4G2 | 
[V:2] z8 | 
[V:3] d2c2B4 | 
[V:4] G,2A,2E,4 | 
[V:1] A2F4ED | 
[V:2] z4D4 | 
[V:3] A8- | 
[V:4] F,2D,4C,B,, | 
[V:1] C8 ||  
[V:2] E8 ||  
[V:3] A8 ||  
[V:4] A,,8 ||  
[V:1]  [K:C] [K:clef=treble][M:2/1]A8 | 
[V:2]  [K:C] [K:clef=treble-8][M:2/1]z8 | 
[V:3]  [K:C] [K:clef=treble-8][M:2/1]z8 | 
[V:4]  [K:C] [K:clef=bass][M:2/1]z8 | 
[V:1] G4c4- | 
[V:2] z4A4- | 
[V:3] z8 | 
[V:4] z8 | 
[V:1] c2BAB4 | 
[V:2] A4G4 | 
[V:3] z8 | 
[V:4] z8 | 
[V:1] A2GFE3F | 
[V:2] c8 | 
[V:3] z8 | 
[V:4] z8 | 
[V:1] G2A4^G2 | 
[V:2] c2BAB4 | 
[V:3] z8 | 
[V:4] z8 | 
[V:1] A4z2A2- | 
[V:2] A6d2- | 
[V:3] z8 | 
[V:4] D,8 | 
[V:1] AGFEF4 | 
[V:2] d2c2A2B2 | 
[V:3] z8 | 
[V:4] D,8 | 
[V:1] E2G3FED | 
[V:2] c4z2G2- | 
[V:3] e8 | 
[V:4] C,8 | 
[V:1] C4z2C2 | 
[V:2] G2A2G2A2- | 
[V:3] e8 | 
[V:4] C,8 | 
[V:1] F3GA2D2 | 
[V:2] AGFED2A2- | 
[V:3] d8 | 
[V:4] D,8 | 
[V:1] F3GA2B2 | 
[V:2] AGFEF4 | 
[V:3] d8 | 
[V:4] D,8 | 
[V:1] c4z2c2- | 
[V:2] E2A3GAB | 
[V:3] e8 | 
[V:4] A,,8 | 
[V:1] cBAGA2E2 | 
[V:2] c3BAGA2 | 
[V:3] e8 | 
[V:4] z8 | 
[V:1] G3FD4 | 
[V:2] E2G3FD2 | 
[V:3] B8 | 
[V:4] z8 | 
[V:1] G8 | 
[V:2] E4EFGA | 
[V:3] z8 | 
[V:4] z8 | 
[V:1] D2F3GA2 | 
[V:2] B2A4d2- | 
[V:3] z8 | 
[V:4] D,8 | 
[V:1] _B2A4GF | 
[V:2] d2c2A2B2 | 
[V:3] z8 | 
[V:4] D,8 | 
[V:1] E2G3FED | 
[V:2] c4z2G2- | 
[V:3] e8 | 
[V:4] C,8 | 
[V:1] C8 | 
[V:2] GFEDC2G2 | 
[V:3] e8 | 
[V:4] C,8 | 
[V:1] z2F3GA2 | 
[V:2] F2A3GFE | 
[V:3] d8 | 
[V:4] D,8 | 
[V:1] D2F4ED | 
[V:2] F2D2A4- | 
[V:3] d8 | 
[V:4] D,8 | 
[V:1] C4z2c2- | 
[V:2] A4c3B | 
[V:3] e8 | 
[V:4] A,,8 | 
[V:1] cBAGA2G2- | 
[V:2] AGA4E2- | 
[V:3] e8 | 
[V:4] z8 | 
[V:1] G2FED3E | 
[V:2] E2G3ABc | 
[V:3] B8 | 
[V:4] z8 | 
[V:1] F2G4^F2 | 
[V:2] d2B2A4 | 
[V:3] z8 | 
[V:4] D,8 | 
[V:1] G4GFED | 
[V:2] G4z2G2- | 
[V:3] z8 | 
[V:4] E,8- | 
[V:1] C2D4^C2 | 
[V:2] G2A2B2G2 | 
[V:3] e8 | 
[V:4] E,8 | 
[V:1] D4A,2D2- | 
[V:2] A4z2F2- | 
[V:3] f8- | 
[V:4] D,8- | 
[V:1] D2C2A,2B,2 | 
[V:2] F2G2A2F2 | 
[V:3] f8 | 
[V:4] D,8 | 
[V:1] C4G,2C2- | 
[V:2] G4z2E2- | 
[V:3] e8- | 
[V:4] C,8- | 
[V:1] C2B,2G,2A,2 | 
[V:2] E2F2G2E2 | 
[V:3] e8 | 
[V:4] C,8 | 
[V:1] _B,4G,2B,2- | 
[V:2] F4z2D2- | 
[V:3] d8- | 
[V:4] _B,,8- | 
[V:1] B,2A,4G,2 | 
[V:2] D2E2F2D2 | 
[V:3] d8 | 
[V:4] B,,8 | 
[V:1] A,4z2C2- | 
[V:2] E8 | 
[V:3] c8- | 
[V:4] A,,8- | 
[V:1] C2D2E2F2 | 
[V:2] A4A4 | 
[V:3] c8 | 
[V:4] A,,8 | 
[V:1] G8- | 
[V:2] E8- | 
[V:3] B8- | 
[V:4] z8 | 
[V:1] G8 ||  
[V:2] E8 ||  
[V:3] B8 ||  
[V:4] E,,8 ||  
[V:1]  [K:C] [K:clef=treble][M:2/1]A6GF | 
[V:2]  [K:C] [K:clef=treble-8][M:2/1]z8 | 
[V:3]  [K:C] [K:clef=treble-8][M:2/1]z8 | 
[V:4]  [K:C] [K:clef=bass][M:2/1]z8 | 
[V:1] E2D2G4- | 
[V:2] z4e4- | 
[V:3] z8 | 
[V:4] z8 | 
[V:1] G2FED2C2 | 
[V:2] e2dcB2A2 | 
[V:3] z8 | 
[V:4] z8 | 
[V:1] F6ED | 
[V:2] d6cB | 
[V:3] z8 | 
[V:4] z8 | 
[V:1] F2G2E4 | 
[V:2] A2G2c4- | 
[V:3] z8 | 
[V:4] z4A,4- | 
[V:1] z8 | 
[V:2] c2BAc2d2 | 
[V:3] z8 | 
[V:4] A,2G,F,E,2D,2 | 
[V:1] z2D4E2 | 
[V:2] B8 | 
[V:3] z8 | 
[V:4] G,6F,E, | 
[V:1] F2G2C4 | 
[V:2] z4A3B | 
[V:3] z8 | 
[V:4] D,2C,2F,4- | 
[V:1] z8 | 
[V:2] c2d3cBA | 
[V:3] z8 | 
[V:4] F,2E,D,F,2G,2 | 
[V:1] G3AB2c2- | 
[V:2] B3cB2e2- | 
[V:3] z2E4E2 | 
[V:4] E,4z4 | 
[V:1] cBAGA2B2- | 
[V:2] edcBc2d2 | 
[V:3] A4A2G2 | 
[V:4] z8 | 
[V:1] BAA4^G2 | 
[V:2] A4B4 | 
[V:3] F4E4 | 
[V:4] z8 | 
[V:1] A4AGFE | 
[V:2] A4z2A2- | 
[V:3] z8 | 
[V:4] z2A,,4A,,2 | 
[V:1] F3GF2E2- | 
[V:2] AGFEF2G2 | 
[V:3] z8 | 
[V:4] D,4D,2C,2 | 
[V:1] EDD4^C2 | 
[V:2] D4E4 | 
[V:3] z8 | 
[V:4] B,,4A,,4 | 
[V:1] D3EFGA2 | 
[V:2] D4z2d2- | 
[V:3] z2D4D2 | 
[V:4] z8 | 
[V:1] G3FEDA2- | 
[V:2] dcBAB2c2 | 
[V:3] G4G2F2 | 
[V:4] z8 | 
[V:1] AGG4^F2 | 
[V:2] G4A4 | 
[V:3] E4D4 | 
[V:4] z8 | 
[V:1] G4GFED | 
[V:2] G4z2G2- | 
[V:3] z8 | 
[V:4] z2G,,4G,,2 | 
[V:1] E3FE2D2- | 
[V:2] GFEDC2G2 | 
[V:3] z8 | 
[V:4] C,4C,2B,,2 | 
[V:1] DCC4B,2 | 
[V:2] FEDCD4 | 
[V:3] z8 | 
[V:4] A,,4G,,4 | 
[V:1] C4E3F | 
[V:2] C8 | 
[V:3] z2G4G2 | 
[V:4] z8 | 
[V:1] G2A3GG2- | 
[V:2] z8 | 
[V:3] c4c2B2 | 
[V:4] z8 | 
[V:1] G2^F2G4 | 
[V:2] z4z2c2- | 
[V:3] A4G4 | 
[V:4] z4z2C,2- | 
[V:1] z8 | 
[V:2] cBAGA2d2- | 
[V:3] z8 | 
[V:4] C,2C,2F,4 | 
[V:1] z8 | 
[V:2] d2c4B2 | 
[V:3] z8 | 
[V:4] F,2E,2D,4 | 
[V:1] z2G3FED | 
[V:2] c4z4 | 
[V:3] z2E4E2 | 
[V:4] C,4z4 | 
[V:1] E2F3EE2- | 
[V:2] z8 | 
[V:3] A4A2G2 | 
[V:4] z8 | 
[V:1] E2D2E4 | 
[V:2] z4z2c2- | 
[V:3] F4E4 | 
[V:4] z4z2A,,2- | 
[V:1] z8 | 
[V:2] cBAGA2B2- | 
[V:3] E4z4 | 
[V:4] A,,2A,,2D,4 | 
[V:1] z8 | 
[V:2] B2A4^G2 | 
[V:3] z8 | 
[V:4] D,2C,2B,,4 | 
[V:1] z4z2A2- | 
[V:2] A4z2f2- | 
[V:3] z2A4A2 | 
[V:4] A,,4D,4- | 
[V:1] AGFEF2G2 | 
[V:2] fedcd2e2- | 
[V:3] d4d2c2 | 
[V:4] D,4z4 | 
[V:1] D4E4 | 
[V:2] e2d4^c2 | 
[V:3] B4A4- | 
[V:4] z8 | 
[V:1] D8 | 
[V:2] d4dcBA | 
[V:3] A4z2B2- | 
[V:4] D,4G,4 | 
[V:1] z8 | 
[V:2] B2G3FED | 
[V:3] B2B2e4 | 
[V:4] G,F,E,D,E,2C,2- | 
[V:1] z8 | 
[V:2] E2G4^F2 | 
[V:3] e2d2c4 | 
[V:4] C,2B,,2A,,4 | 
[V:1] D8 ||  
[V:2] G8 ||  
[V:3] B8 ||  
[V:4] G,,8 ||  
[V:1]  [K:C] [K:clef=treble][M:2/1]C8 | 
[V:2]  [K:C] [K:clef=treble-8][M:2/1]z8 | 
[V:3]  [K:C] [K:clef=treble-8][M:2/1]A8 | 
[V:4]  [K:C] [K:clef=bass][M:2/1]A,,8 | 
[V:1] E8 | 
[V:2] z8 | 
[V:3] A4G4- | 
[V:4] C,8 | 
[V:1] D8 | 
[V:2] z8 | 
[V:3] G4G4 | 
[V:4] B,,8 | 
[V:1] C8- | 
[V:2] z8 | 
[V:3] A8 | 
[V:4] A,,8- | 
[V:1] C8 | 
[V:2] e8 | 
[V:3] A4E4- | 
[V:4] A,,8 | 
[V:1] G8 | 
[V:2] e4d4- | 
[V:3] E4z4 | 
[V:4] C,4G,,4 | 
[V:1] F6ED | 
[V:2] d4d4 | 
[V:3] z4A4- | 
[V:4] D,8 | 
[V:1] C4CDEF | 
[V:2] e8 | 
[V:3] A4A4 | 
[V:4] A,,6C,2- | 
[V:1] G6FE | 
[V:2] e4B4 | 
[V:3] G8 | 
[V:4] C,D,E,4D,C, | 
[V:1] D4C4- | 
[V:2] z4z4 | 
[V:3] G4A4- | 
[V:4] B,,4A,,4- | 
[V:1] C4C4 | 
[V:2] z4e4- | 
[V:3] A4A4 | 
[V:4] A,,8- | 
[V:1] z2C3DEF | 
[V:2] e4e4 | 
[V:3] E4z2A2 | 
[V:4] A,,4C,4 | 
[V:1] G2D2F4- | 
[V:2] d8 | 
[V:3] B4A3G | 
[V:4] G,,4D,4- | 
[V:1] F2EDC4- | 
[V:2] d4e4- | 
[V:3] F4E4 | 
[V:4] D,4A,,4 | 
[V:1] C2B,A,G,4 | 
[V:2] e4e4 | 
[V:3] z4E4- | 
[V:4] C,4C,D,E,F, | 
[V:1] z2G4FE | 
[V:2] B4z2e2 | 
[V:3] E4E4 | 
[V:4] G,4C,4 | 
[V:1] D4C3D | 
[V:2] f4e3d | 
[V:3] A8 | 
[V:4] D,4A,,4- | 
[V:1] E2F3EE2- | 
[V:2] c4B4 | 
[V:3] A4G4 | 
[V:4] A,,4z4 | 
[V:1] E2D2E4- | 
[V:2] z4B4- | 
[V:3] F4E4- | 
[V:4] D,4G,4- | 
[V:1] E4G4 | 
[V:2] B4B4 | 
[V:3] E4z2B2 | 
[V:4] G,2F,E,E,4- | 
[V:1] GFEDC4- | 
[V:2] e8 | 
[V:3] B2B2A4 | 
[V:4] E,4A,,4 | 
[V:1] C4A,4 | 
[V:2] e4d4 | 
[V:3] G2E2F4 | 
[V:4] C,4D,4 | 
[V:1] z2E3FG2- | 
[V:2] c4B4- | 
[V:3] E4z2E2 | 
[V:4] A,,B,,C,D,E,3F, | 
[V:1] G2FEF2D2- | 
[V:2] B4z2f2 | 
[V:3] E2E2D4- | 
[V:4] G,4A,4 | 
[V:1] DC/B,/A,2z2A,2- | 
[V:2] f2f2e4 | 
[V:3] D4C2A,2 | 
[V:4] F,4G,2C,2 | 
[V:1] A,2^G,2A,4 | 
[V:2] d2B2c4 | 
[V:3] B,4A,4 | 
[V:4] D,4E,3F, | 
[V:1] B,2G,2z2G2- | 
[V:2] B4z2B2 | 
[V:3] E8- | 
[V:4] G,8 | 
[V:1] GFEDC3D | 
[V:2] B2B2A4- | 
[V:3] E8 | 
[V:4] z2G,,2A,,3B,, | 
[V:1] E2F4E2- | 
[V:2] A4G2E2 | 
[V:3] z8 | 
[V:4] C,2D,2E,2C,2 | 
[V:1] E2D2E4- | 
[V:2] F4E4 | 
[V:3] z8 | 
[V:4] D,4A,,4 | 
[V:1] E8 |]  
[V:2] B8 |]  
[V:3] E8 |]  
[V:4] E,8 |]  



